lib/brands/icons/cirrus.svg

<svg xmlns="http://www.w3.org/2000/svg" fill="none" aria-hidden="true" viewBox="0 0 48 48"><g id="cirrus-Icon"><g id="Group"><path id="Vector" fill="#2271CE" d="M29.4088 30.571H18.5928V11.1332H29.4088V30.571Z"/><path id="Vector_2" fill="#005EB6" d="M19.2786 20.8526C19.2786 16.9096 21.1247 13.3973 23.9997 11.1338C21.8973 9.47858 19.244 8.49066 16.3604 8.49066C9.53377 8.49066 4 14.0252 4 20.8526C4 27.68 9.53377 33.2146 16.3604 33.2146C19.244 33.2146 21.8973 32.2267 23.9997 30.5715C21.1247 28.308 19.2786 24.7957 19.2786 20.8526Z"/><path id="Vector_3" fill="#0099DF" d="M43.9997 20.8526C43.9997 27.68 38.4659 33.2146 31.6393 33.2146C28.7557 33.2146 26.1024 32.2267 24 30.5715C26.8749 28.308 28.7211 24.7957 28.7211 20.8526C28.7211 16.9096 26.8749 13.3973 24 11.1338C26.1024 9.47858 28.7557 8.49066 31.6393 8.49066C38.4659 8.49066 43.9997 14.0252 43.9997 20.8526Z"/><path id="Vector_4" fill="#231F20" d="M32.3905 36.4038C32.047 36.1775 31.5731 36.0604 31.052 36.0604C30.2205 36.0604 29.6853 36.4588 29.6853 37.1112C29.6853 37.6464 30.0838 37.9757 30.8178 38.0794L31.155 38.1274C31.5456 38.1824 31.7311 38.2853 31.7311 38.47C31.7311 38.7247 31.4702 38.8685 30.9829 38.8685C30.4885 38.8685 30.1317 38.7105 29.8912 38.5251L29.5548 39.0815C29.9462 39.3699 30.4406 39.5075 30.9758 39.5075C31.9236 39.5075 32.473 39.0611 32.473 38.4362C32.473 37.8594 32.0407 37.5576 31.3263 37.4538L30.99 37.4059C30.6811 37.365 30.4335 37.3029 30.4335 37.0837C30.4335 36.8432 30.6669 36.6993 31.0583 36.6993C31.4772 36.6993 31.8828 36.8573 32.0816 36.9807L32.3905 36.4038ZM15.5273 37.7838C15.5273 38.7795 16.2205 39.5073 17.2784 39.5073C17.7728 39.5073 18.1021 39.3973 18.4589 39.1159L18.1154 38.539C17.8482 38.7316 17.5668 38.8346 17.2572 38.8346C16.6874 38.8275 16.2693 38.4157 16.2693 37.7838C16.2693 37.1519 16.6874 36.74 17.2572 36.733C17.5668 36.733 17.8482 36.8359 18.1154 37.0285L18.4589 36.4516C18.1021 36.1702 17.7728 36.0602 17.2784 36.0602C16.2205 36.0602 15.5273 36.788 15.5273 37.7838ZM22.4109 36.0604C21.999 36.0604 21.731 36.253 21.5456 36.5414V36.143H20.839V39.425H21.5526V37.5844C21.5526 37.0421 21.7861 36.7403 22.2529 36.7403C22.3975 36.7403 22.5484 36.7607 22.6993 36.8228L22.9186 36.15C22.7614 36.0879 22.5547 36.0604 22.4109 36.0604ZM25.0628 36.0604C24.651 36.0604 24.383 36.253 24.1975 36.5414V36.143H23.4909V39.425H24.2046V37.5844C24.2046 37.0421 24.438 36.7403 24.9048 36.7403C25.0494 36.7403 25.2003 36.7607 25.3512 36.8228L25.5705 36.15C25.4133 36.0879 25.2066 36.0604 25.0628 36.0604ZM20.0598 39.4235H19.3415V36.1462H20.0598V39.4235ZM19.6967 34.5083C19.7674 34.5083 19.8334 34.5209 19.8955 34.5476C19.9571 34.5735 20.0103 34.6097 20.0558 34.6553C20.1011 34.7009 20.1376 34.7543 20.1635 34.8156C20.1906 34.8777 20.2025 34.9437 20.2025 35.0144C20.2025 35.0852 20.1899 35.1512 20.1635 35.2125C20.1378 35.2746 20.1013 35.3272 20.0558 35.372C20.0106 35.4161 19.9568 35.4514 19.8955 35.4758C19.8333 35.5009 19.7674 35.5135 19.6967 35.5135C19.626 35.5135 19.5599 35.5009 19.4986 35.4758C19.4364 35.4515 19.3839 35.4161 19.3391 35.372C19.2951 35.3273 19.2605 35.2746 19.2353 35.2125C19.2102 35.1512 19.1976 35.0852 19.1976 35.0144C19.1976 34.9437 19.2102 34.8777 19.2353 34.8156C19.2605 34.7543 19.2951 34.7009 19.3391 34.6553C19.3837 34.6097 19.4365 34.5735 19.4986 34.5476C19.5603 34.5209 19.626 34.5083 19.6967 34.5083ZM29.1126 38.0349C29.1126 38.2951 29.0693 38.5183 28.9845 38.7053C28.8988 38.8924 28.7864 39.0449 28.6465 39.1635C28.5066 39.2822 28.3471 39.3695 28.1671 39.4253C27.9863 39.4811 27.8016 39.5094 27.613 39.5094C27.4236 39.5094 27.2389 39.4811 27.0589 39.4253C26.8782 39.3695 26.7178 39.2822 26.5771 39.1635C26.4365 39.0449 26.3241 38.8924 26.2392 38.7053C26.1551 38.5183 26.1127 38.2951 26.1127 38.0349V36.1463H26.8224V37.9697C26.8224 38.1269 26.8428 38.2613 26.8829 38.3721C26.9237 38.4821 26.9795 38.5717 27.0503 38.6401C27.121 38.7085 27.2051 38.7588 27.3018 38.7894C27.3984 38.8201 27.5022 38.8358 27.613 38.8358C27.723 38.8358 27.8268 38.8201 27.9235 38.7894C28.0201 38.7588 28.1042 38.7085 28.175 38.6401C28.2465 38.5717 28.3015 38.4821 28.3424 38.3721C28.3832 38.2613 28.4029 38.1269 28.4029 37.9697V36.1463H29.1126V38.0349Z"/></g></g></svg>

<svg xmlns="http://www.w3.org/2000/svg" fill="none" aria-hidden="true" viewBox="0 0 48 48"><path fill="#2271CE" d="M29.409 30.571H18.593V11.133h10.816v19.438Z"/><path fill="#005EB6" d="M19.279 20.853a12.34 12.34 0 0 1 4.72-9.72 12.308 12.308 0 0 0-7.639-2.642C9.534 8.49 4 14.025 4 20.853c0 6.827 5.534 12.362 12.36 12.362 2.884 0 5.537-.988 7.64-2.644a12.34 12.34 0 0 1-4.721-9.718Z"/><path fill="#0099DF" d="M44 20.853c0 6.827-5.534 12.362-12.36 12.362-2.884 0-5.537-.988-7.64-2.644a12.341 12.341 0 0 0 4.721-9.718c0-3.943-1.846-7.456-4.72-9.72a12.308 12.308 0 0 1 7.639-2.642C38.465 8.49 44 14.025 44 20.853Z"/><path fill="#231F20" d="M32.39 36.404c-.343-.227-.817-.344-1.338-.344-.831 0-1.366.399-1.366 1.051 0 .535.398.865 1.132.968l.337.048c.39.055.576.158.576.343 0 .255-.26.398-.748.398-.494 0-.851-.157-1.091-.343l-.337.556c.392.289.886.426 1.421.426.948 0 1.497-.446 1.497-1.07 0-.578-.432-.88-1.146-.983l-.337-.048c-.309-.041-.556-.103-.556-.322 0-.24.233-.385.625-.385.418 0 .824.158 1.023.282l.309-.577Zm-16.862 1.38c0 .995.693 1.723 1.75 1.723.495 0 .824-.11 1.181-.391l-.343-.577a1.438 1.438 0 0 1-.859.296c-.57-.008-.988-.42-.988-1.051 0-.632.419-1.044.988-1.051.31 0 .591.103.859.296l.343-.577c-.357-.282-.686-.392-1.18-.392-1.058 0-1.751.728-1.751 1.724Zm6.883-1.724c-.412 0-.68.193-.865.481v-.398h-.707v3.282h.714v-1.84c0-.543.233-.845.7-.845.145 0 .296.02.447.083l.219-.673a1.515 1.515 0 0 0-.508-.09Zm2.652 0c-.412 0-.68.193-.865.481v-.398h-.707v3.282h.714v-1.84c0-.543.233-.845.7-.845.145 0 .296.02.447.083l.219-.673a1.515 1.515 0 0 0-.508-.09Zm-5.003 3.363h-.718v-3.277h.718v3.277Zm-.363-4.915a.497.497 0 0 1 .467.308.491.491 0 0 1 .039.198.495.495 0 0 1-.506.5.517.517 0 0 1-.358-.142.516.516 0 0 1-.142-.358.523.523 0 0 1 .142-.359.49.49 0 0 1 .358-.147Zm9.416 3.527c0 .26-.043.483-.128.67a1.297 1.297 0 0 1-.818.72 1.868 1.868 0 0 1-1.108 0 1.278 1.278 0 0 1-.82-.72 1.624 1.624 0 0 1-.126-.67v-1.889h.71v1.824c0 .157.02.291.06.402.041.11.097.2.168.268.07.069.154.119.251.15a1.044 1.044 0 0 0 .621-.001.613.613 0 0 0 .252-.149.701.701 0 0 0 .168-.268c.04-.11.06-.245.06-.402v-1.824h.71v1.889Z"/></svg>
